X:1
T:Title
%%score { ( 1 3 ) | 2 }
L:1/8
M:4/4
K:G
V:1 treble nm="Grand Piano"
V:3 treble 
V:2 bass 
V:1
 z4 z2[Q:1/4=100] GA | BD D>E D2 E[A,DF] | [G,DG][B,DG] [B,DG]>[CFA] G2 GA | Bd d>e ddBG | %4
 [GB]4 [FA]2 GA | BD D>E D2 E[A,DF] | [G,DG][B,DG] [B,DG]>[CFA] G2 GA | Bd d>e ddB[DG] | %8
[M:3/4] [CA]4 [B,G]2 |[M:1/4] B>c |[M:4/4] d4 z4 | c4 z4 | [Ac]2 [FA]2 [Fd]2 [DAc]2 | B6 z2 | %14
 [DB][B,D] [B,D]>[CE] [B,D]2 [G,CE][A,DF] | [G,DG][B,DG] [B,DG]>[CFA] G2 GA | Bd d>e dd[DB][DG] | %17
[M:3/4] [CA]4 [B,G]2 |] %18
V:2
 z4 z2 [G,B,][G,C] | [G,D][G,B,] [G,B,]>[G,C] [G,B,]2 [C,G,C]C, | %2
 B,,G,, D,>D, [G,B,]2 [G,B,][K:treble][G,CG] | %3
 [G,DG][G,B,G] [G,B,G]>[G,CG] [G,B,G][G,B,G][K:bass][G,D][G,B,D] | [D,D]4 [D,D]2 [G,B,D][G,CD] | %5
 [G,D][G,B,] [G,B,]>[G,C] [G,B,]2 [C,G,C]C, | B,,G,, D,>D, [G,B,]2 [G,B,][K:treble][G,CG] | %7
 [G,DG][G,B,G] [G,B,G]>[G,CG] [G,B,G][G,B,G][K:bass][G,D][B,,G,] |[M:3/4] [D,F,]4 [G,,G,]2 | %9
[M:1/4] z2 |[M:4/4] z2[K:treble] [G,B,]2 [G,DG]2 z2 | z2[K:bass] [D,A,]2 [D,D]2 [D,D]>[D,D] | %12
 [D,D]2 [D,D]2 [D,A,]2 D,2 | G,,2 G,,2 G,,2 [G,,G,][G,,G,] | %14
 [G,,G,][G,,G,] [G,,G,]>[G,,G,] [G,,G,]2 C,C, | B,,G,, D,>D, [G,B,]2 [G,B,][K:treble][G,CG] | %16
 [G,DG][G,B,G] [G,B,G]>[G,CG] [G,B,G][G,B,G][K:bass][G,,G,][B,,G,] |[M:3/4] [D,F,]4 [G,,G,]2 |] %18
V:3
 x8 | x8 | x8 | x8 | x8 | x8 | x8 | x8 |[M:3/4] x6 |[M:1/4] x2 |[M:4/4] z2 D2 B2 e>d | %11
 z2 F2 [FA]2 [FA]>[GB] | x8 | [DG]2 [B,D]2 [G,D]2 [B,G][CA] | x8 | x8 | x8 |[M:3/4] x6 |] %18

